X:40
T:Climbing Vine (reel), The
B:CRE2.287 (An GabhrÃÂÃÂÃÂÃÂ¡n)
F:file ID: cre.2/040climb
Q:180
L:1/8
M:4/4
R:reel
K:Em
B2BA (3B^cd ed|B2BA BE E2|B2BA (3B^cd ef|gefd eeed|
B2 BA (3B^cd ed|B2 BA BE E2|B2 BA (3B^cd ef|gefd e4||
BE E2 GFGE|D2 ED BE E2|BE E2 GGGA|B^cBA BE E2|
BE E2 GFGE|D2 ED BE E2|BE E2 GGGA|B2 BA BE E2|]

%%%

